X:3
T:nOg Slide Set
R:slide
M:6/8
L:1/8
K:G
"Roga Mhaire Ni Bhroanan"
G2E D3 | E2F G2B | A2G E2F | G2B d2c |
B2D D3 | E2F G2B | A2G E2F |1 G3 G3 :|2 G3 G2A |
|: B3 B2A | B2c dcB | A3 A2G | A2B c2A |
B3 B2A | B2c d2B | A2G E2F |1 G3 G2A :|2 G3 G3 ||
K:D
"Off We Go"
F2A G2B | ABc d2A | F2A G2B | AFD E2D |
F2A G2B | ABc d2e | f2d g2f |1 edc d3 :|2 edc d2e |
|:faf d2f | gbg e2g | faf d2f | ecA A2e |
faf d2f | gbg efg | f2d g2f |1 edc d2e :|2 edc d3 ||
K:G
"Paddy McFadden"
f | e2A ABA | e2f g2f | e2A ABA | G2A Bcd |
e2A ABA | e2f g2f | efe e2d | B2A A3 :|
|:e2a a2g |e2f g2f | e2a a2g | e2d Bcd |
e2a a2g | e2f g2f | efe e2d | B2A A3 :|
